logo.svg

<?xml version="1.0" standalone="no"?>
<!DOCTYPE svg PUBLIC "-//W3C//DTD SVG 1.0//EN" "http://www.w3.org/TR/2001/REC-SVG-20010904/DTD/svg10.dtd">
<svg xmlns="http://www.w3.org/2000/svg" xmlns:xlink="http://www.w3.org/1999/xlink" id="body_1" width="50" height="38">

<g transform="matrix(0.07421875 0 0 0.07421875 6 -0)">
	<g>
		<g>
			<g>
                <path d="M359.4 441.4L152.6 441.4C 107.3 441.4 70.600006 404.69998 70.600006 359.4L70.600006 359.4L70.600006 152.6C 70.600006 107.3 107.3 70.600006 152.6 70.600006L152.6 70.600006L359.40002 70.600006C 404.7 70.600006 441.40002 107.3 441.40002 152.6L441.40002 152.6L441.40002 359.40002C 441.4 404.7 404.7 441.4 359.4 441.4z" stroke="#F5F7FE" stroke-width="9.1376" fill="#DFE6FD" fill-rule="nonzero" />
				<g>
					<g>
                        <path d="M303.4 295.7L264.1 295.7C 256.9 295.7 251 289.80002 251 282.6L251 282.6L251 278.6C 251 271.4 256.9 265.5 264.1 265.5L264.1 265.5L303.4 265.5C 310.6 265.5 316.5 271.4 316.5 278.6L316.5 278.6L316.5 282.6C 316.5 289.8 310.6 295.7 303.4 295.7z" stroke="none" fill="#2A69E6" fill-rule="nonzero" />
                        <path d="M303.4 342.7L264.1 342.7C 256.9 342.7 251 336.80002 251 329.6L251 329.6L251 325.6C 251 318.4 256.9 312.5 264.1 312.5L264.1 312.5L303.4 312.5C 310.6 312.5 316.5 318.4 316.5 325.6L316.5 325.6L316.5 329.6C 316.5 336.8 310.6 342.7 303.4 342.7z" stroke="none" fill="#2A69E6" fill-rule="nonzero" />
                        <path d="M378.4 390.7L339.1 390.7C 331.9 390.7 326 384.80002 326 377.6L326 377.6L326 373.6C 326 366.4 331.9 360.5 339.1 360.5L339.1 360.5L378.4 360.5C 385.6 360.5 391.5 366.4 391.5 373.6L391.5 373.6L391.5 377.6C 391.5 384.8 385.6 390.7 378.4 390.7z" stroke="none" fill="#2A69E6" fill-rule="nonzero" />
                        <path d="M303.4 390.7L264.1 390.7C 256.9 390.7 251 384.80002 251 377.6L251 377.6L251 373.6C 251 366.4 256.9 360.5 264.1 360.5L264.1 360.5L303.4 360.5C 310.6 360.5 316.5 366.4 316.5 373.6L316.5 373.6L316.5 377.6C 316.5 384.8 310.6 390.7 303.4 390.7z" stroke="none" fill="#2A69E6" fill-rule="nonzero" />
					</g>
					<g>
						<g>
							<g>
                                <path d="M205.6 348.1L209 345.9C 214.7 342.1 218.2 337.1 218.9 331.5C 219.59999 326.3 217.9 320.9 214.4 316.9C 210.9 312.9 205.9 310.6 200.5 310.6C 195.6 310.6 191 312.5 187.5 315.9C 183.6 319.8 181.7 324 181.9 328.5C 182.09999 334.4 185.79999 340.6 192.59999 346.5L192.59999 346.5L195.29999 348.8L173 407L168.4 405.3C 154.09999 400 140.59999 389 131.4 375.09998C 120.7 359.09998 116.09999 340.39996 118.09999 321.09998C 122.19999 280.19998 154.69998 248.79997 195.19998 246.49997C 196.89998 246.39996 198.59998 246.39996 200.19998 246.39996C 219.39998 246.39996 238.09998 252.79996 252.79999 264.49997C 267.5 276.19998 277.8 292.79996 281.69998 311.09998C 291.3 355.89996 264.49997 392.49997 233.19998 405.49997L233.19998 405.49997L228.49998 407.49997L205.6 348.1z" stroke="none" fill="#4CB152" fill-rule="nonzero" />
                                <path d="M200.2 251.3C 237.6 251.3 269.3 276.5 276.8 312.1C 285.4 352.6 262.4 387.90002 231.19998 400.8C 224.69998 384 218.19998 367.19998 211.69998 350.19998C 227.39998 339.9 226.49998 323.19998 218.19998 313.69998C 213.59998 308.4 207.09998 305.69998 200.59998 305.69998C 194.59998 305.69998 188.69998 307.9 184.09998 312.49997C 172.99997 323.49997 174.99997 337.89996 189.39998 350.39996C 182.99998 367.09998 176.49998 383.89996 170.09998 400.59998C 144.59998 391.19998 118.99998 360.89996 122.99998 321.59998C 126.89998 282.39996 158.09998 253.59998 195.49997 251.49997C 197 251.3 198.6 251.3 200.2 251.3zM200.2 241.3C 198.4 241.3 196.7 241.40001 194.9 241.5C 151.79999 243.9 117.399994 277.2 113.09999 320.6C 110.99999 341.1 115.899994 360.9 127.19999 377.9C 136.99998 392.69998 151.4 404.4 166.69998 410L166.69998 410L175.99998 413.4L179.49998 404.19998L190.19998 376.4L198.79999 354L200.69998 349.1L202.49998 353.7L212.89998 380.7L221.99998 404.30002L225.69998 413.90002L235.19998 410.00003C 253.09998 402.60004 268.19998 389.00003 277.8 371.60004C 288.19998 352.80005 291.3 331.50003 286.69998 310.00003C 282.49997 290.50003 271.59998 273.00003 255.99998 260.50003C 240.3 248.1 220.5 241.3 200.2 241.3zM199.8 346L196 342.7C 190.4 337.80002 187.2 332.7 187 328.30002C 186.9 325.2 188.3 322.30002 191.2 319.40002C 193.7 316.90002 197.09999 315.50003 200.59999 315.50003C 204.49998 315.50003 208.2 317.20004 210.7 320.10004C 213.3 323.00003 214.5 327.00003 214 330.70004C 213.4 334.90005 210.8 338.60004 206.3 341.60004L206.3 341.60004L199.8 346z" stroke="none" fill="#DFE6FD" fill-rule="nonzero" />
							</g>
						</g>
					</g>
				</g>
			</g>
		</g>
        <path d="M366.9 301.2C 366.9 281.5 367 290.80002 367 265.5C 386.7 265.5 402.7 281.5 402.7 301.2" stroke="none" fill="#2A69E6" fill-rule="nonzero" />
        <path d="M361.7 306.4C 361.7 286.69998 361.80002 296 361.80002 270.69998C 341.2 270.69998 324.7 288.09998 326.2 308.99997C 327.40002 326.59998 341.7 340.89996 359.30002 342.09998C 380.2 343.49997 397.6 326.99997 397.6 306.49997L397.6 306.49997L361.7 306.4z" stroke="none" fill="#2A69E6" fill-rule="nonzero" />
		<g>
			<g>
                <path d="M230.3 229C 222.3 226.9 218.8 225 218.8 225C 214.5 222.6 212.6 217 214.6 212.5L214.6 212.5L217 207.2C 219 202.7 224.2 200.9 228.5 203.3C 228.5 203.3 230.7 204.5 236.9 206.40001C 243.09999 208.3 249.09999 209.20001 255.09999 209.20001C 266.4 209.20001 272.09998 206.40001 272.09998 200.70001C 272.09998 197.70001 270.49997 195.50002 267.3 194.1C 264.09998 192.70001 258.9 191.1 251.69998 189.6C 243.79999 187.90001 237.29999 186.1 231.99998 184.20001C 226.69998 182.30002 222.19998 179.20001 218.39998 174.90001C 214.59998 170.6 212.69998 164.90001 212.69998 157.6C 212.69998 151.20001 214.39998 145.5 217.89998 140.40001C 221.39998 135.3 226.59998 131.20001 233.49998 128.3C 240.39998 125.3 248.89998 123.8 258.9 123.8C 265.8 123.8 272.5 124.600006 279.19998 126.100006C 285.9 127.600006 288.69998 129 288.69998 129C 293.19998 131.1 295.3 136.6 293.4 141.2L293.4 141.2L291.19998 146.5C 289.3 151.1 283.99997 153.3 279.4 151.4C 279.4 151.4 268.1 146.79999 258.8 146.79999C 252.9 146.79999 248.69998 147.69998 245.99998 149.4C 243.29999 151.09999 241.99998 153.4 241.99998 156.2C 241.99998 159 243.59999 161.09999 246.79999 162.5C 249.99998 163.9 255.09999 165.3 262.19998 166.8C 270.09998 168.5 276.69998 170.3 281.9 172.2C 287.1 174.09999 291.6 177.2 295.5 181.4C 299.3 185.59999 301.2 191.4 301.2 198.59999C 301.2 204.9 299.5 210.49998 296 215.59999C 292.5 220.7 287.3 224.7 280.4 227.7C 273.4 230.7 265 232.2 255.09999 232.2C 246.4 232.1 238.2 231.1 230.3 229z" stroke="none" fill="#2A69E6" fill-rule="nonzero" />
			</g>
		</g>
	</g>
	<g>
        <path d="M456 113.1C 456 128.86772 450.42526 142.32632 439.2758 153.4758C 428.1263 164.62527 414.66772 170.2 398.9 170.2C 383.1323 170.2 369.6737 164.62527 358.5242 153.4758C 347.37476 142.32632 341.8 128.86772 341.8 113.1C 341.8 97.332275 347.37476 83.87367 358.5242 72.7242C 369.6737 61.574738 383.1323 56.000004 398.9 56C 414.66772 56.000004 428.1263 61.574738 439.2758 72.7242C 450.42526 83.87367 456 97.332275 456 113.1C 456 113.76445 455.9884 114.42871 455.9652 115.09276" stroke="none" fill="#967AED" fill-rule="nonzero" />
		<g>
            <path d="M359.3 125C 358.69998 124.4 358.4 123.6 358.4 122.7C 358.4 121.799995 358.69998 121 359.3 120.399994C 359.9 119.799995 360.59998 119.49999 361.5 119.49999C 362.4 119.49999 363.1 119.799995 363.7 120.399994C 364.30002 120.99999 364.6 121.7 364.6 122.7C 364.6 123.6 364.30002 124.399994 363.7 125C 363.1 125.6 362.40002 125.9 361.5 125.9C 360.7 125.9 360 125.6 359.3 125z" stroke="none" fill="#FFFFFF" fill-rule="nonzero" />
            <path d="M393.4 99L393.4 125.6L389.3 125.6L374.59998 107.6L374.59998 125.6L369.69998 125.6L369.69998 99L373.8 99L388.5 117L388.5 99L393.4 99z" stroke="none" fill="#FFFFFF" fill-rule="nonzero" />
            <path d="M420.6 121.5L420.6 125.6L400.6 125.6L400.6 99L420 99L420 103.1L405.5 103.1L405.5 110L418.4 110L418.4 114.1L405.5 114.1L405.5 121.4L420.6 121.5z" stroke="none" fill="#FFFFFF" fill-rule="nonzero" />
            <path d="M431.5 103.2L422.7 103.2L422.7 99L445.30002 99L445.30002 103.2L436.50003 103.2L436.50003 125.6L431.60004 125.6L431.60004 103.2L431.5 103.2z" stroke="none" fill="#FFFFFF" fill-rule="nonzero" />
		</g>
	</g>
</g>
</svg>

<?xml version="1.0" encoding="utf-8"?>
<!-- Generator: Adobe Illustrator 25.2.0, SVG Export Plug-In . SVG Version: 6.00 Build 0)  -->
<svg version="1.1" id="Layer_1" xmlns="http://www.w3.org/2000/svg" xmlns:xlink="http://www.w3.org/1999/xlink" x="0px" y="0px"
	 viewBox="0 0 512 512" style="enable-background:new 0 0 512 512;" xml:space="preserve">
<style type="text/css">
	.st0{fill:#DFE6FD;stroke:#F5F7FE;stroke-width:9.1376;stroke-miterlimit:10;}
	.st1{fill:#2A69E6;}
	.st2{fill:#4CB152;}
	.st3{fill:#DFE6FD;}
	.st4{fill:#967AED;}
	.st5{fill:#FFFFFF;}
</style>
<g>
	<g>
		<g id="shape_2_">
			<path class="st0" d="M359.4,441.4H152.6c-45.3,0-82-36.7-82-82V152.6c0-45.3,36.7-82,82-82h206.8c45.3,0,82,36.7,82,82v206.8
				C441.4,404.7,404.7,441.4,359.4,441.4z"/>
			<g>
				<g>
					<path class="st1" d="M303.4,295.7h-39.3c-7.2,0-13.1-5.9-13.1-13.1v-4c0-7.2,5.9-13.1,13.1-13.1h39.3c7.2,0,13.1,5.9,13.1,13.1
						v4C316.5,289.8,310.6,295.7,303.4,295.7z"/>
					<path class="st1" d="M303.4,342.7h-39.3c-7.2,0-13.1-5.9-13.1-13.1v-4c0-7.2,5.9-13.1,13.1-13.1h39.3c7.2,0,13.1,5.9,13.1,13.1
						v4C316.5,336.8,310.6,342.7,303.4,342.7z"/>
					<path class="st1" d="M378.4,390.7h-39.3c-7.2,0-13.1-5.9-13.1-13.1v-4c0-7.2,5.9-13.1,13.1-13.1h39.3c7.2,0,13.1,5.9,13.1,13.1
						v4C391.5,384.8,385.6,390.7,378.4,390.7z"/>
					<path class="st1" d="M303.4,390.7h-39.3c-7.2,0-13.1-5.9-13.1-13.1v-4c0-7.2,5.9-13.1,13.1-13.1h39.3c7.2,0,13.1,5.9,13.1,13.1
						v4C316.5,384.8,310.6,390.7,303.4,390.7z"/>
				</g>
				<g id="vZczqv_1_">
					<g>
						<g>
							<path class="st2" d="M205.6,348.1l3.4-2.2c5.7-3.8,9.2-8.8,9.9-14.4c0.7-5.2-1-10.6-4.5-14.6s-8.5-6.3-13.9-6.3
								c-4.9,0-9.5,1.9-13,5.3c-3.9,3.9-5.8,8.1-5.6,12.6c0.2,5.9,3.9,12.1,10.7,18l2.7,2.3L173,407l-4.6-1.7
								c-14.3-5.3-27.8-16.3-37-30.2c-10.7-16-15.3-34.7-13.3-54c4.1-40.9,36.6-72.3,77.1-74.6c1.7-0.1,3.4-0.1,5-0.1
								c19.2,0,37.9,6.4,52.6,18.1s25,28.3,28.9,46.6c9.6,44.8-17.2,81.4-48.5,94.4l-4.7,2L205.6,348.1z"/>
							<path class="st3" d="M200.2,251.3c37.4,0,69.1,25.2,76.6,60.8c8.6,40.5-14.4,75.8-45.6,88.7c-6.5-16.8-13-33.6-19.5-50.6
								c15.7-10.3,14.8-27,6.5-36.5c-4.6-5.3-11.1-8-17.6-8c-6,0-11.9,2.2-16.5,6.8c-11.1,11-9.1,25.4,5.3,37.9
								c-6.4,16.7-12.9,33.5-19.3,50.2c-25.5-9.4-51.1-39.7-47.1-79c3.9-39.2,35.1-68,72.5-70.1C197,251.3,198.6,251.3,200.2,251.3
								 M200.2,241.3c-1.8,0-3.5,0.1-5.3,0.2c-43.1,2.4-77.5,35.7-81.8,79.1c-2.1,20.5,2.8,40.3,14.1,57.3
								c9.8,14.8,24.2,26.5,39.5,32.1l9.3,3.4l3.5-9.2l10.7-27.8l8.6-22.4l1.9-4.9l1.8,4.6l10.4,27l9.1,23.6l3.7,9.6l9.5-3.9
								c17.9-7.4,33-21,42.6-38.4c10.4-18.8,13.5-40.1,8.9-61.6c-4.2-19.5-15.1-37-30.7-49.5C240.3,248.1,220.5,241.3,200.2,241.3
								L200.2,241.3z M199.8,346l-3.8-3.3c-5.6-4.9-8.8-10-9-14.4c-0.1-3.1,1.3-6,4.2-8.9c2.5-2.5,5.9-3.9,9.4-3.9
								c3.9,0,7.6,1.7,10.1,4.6c2.6,2.9,3.8,6.9,3.3,10.6c-0.6,4.2-3.2,7.9-7.7,10.9L199.8,346L199.8,346z"/>
						</g>
					</g>
				</g>
			</g>
		</g>
	</g>
	<path class="st1" d="M366.9,301.2c0-19.7,0.1-10.4,0.1-35.7c19.7,0,35.7,16,35.7,35.7"/>
	<path class="st1" d="M361.7,306.4c0-19.7,0.1-10.4,0.1-35.7c-20.6,0-37.1,17.4-35.6,38.3c1.2,17.6,15.5,31.9,33.1,33.1
		c20.9,1.4,38.3-15.1,38.3-35.6L361.7,306.4z"/>
	<g>
		<g>
			<path class="st1" d="M230.3,229c-8-2.1-11.5-4-11.5-4c-4.3-2.4-6.2-8-4.2-12.5l2.4-5.3c2-4.5,7.2-6.3,11.5-3.9
				c0,0,2.2,1.2,8.4,3.1c6.2,1.9,12.2,2.8,18.2,2.8c11.3,0,17-2.8,17-8.5c0-3-1.6-5.2-4.8-6.6c-3.2-1.4-8.4-3-15.6-4.5
				c-7.9-1.7-14.4-3.5-19.7-5.4s-9.8-5-13.6-9.3s-5.7-10-5.7-17.3c0-6.4,1.7-12.1,5.2-17.2c3.5-5.1,8.7-9.2,15.6-12.1
				c6.9-3,15.4-4.5,25.4-4.5c6.9,0,13.6,0.8,20.3,2.3c6.7,1.5,9.5,2.9,9.5,2.9c4.5,2.1,6.6,7.6,4.7,12.2l-2.2,5.3
				c-1.9,4.6-7.2,6.8-11.8,4.9c0,0-11.3-4.6-20.6-4.6c-5.9,0-10.1,0.9-12.8,2.6c-2.7,1.7-4,4-4,6.8s1.6,4.9,4.8,6.3
				c3.2,1.4,8.3,2.8,15.4,4.3c7.9,1.7,14.5,3.5,19.7,5.4s9.7,5,13.6,9.2c3.8,4.2,5.7,10,5.7,17.2c0,6.3-1.7,11.9-5.2,17
				s-8.7,9.1-15.6,12.1c-7,3-15.4,4.5-25.3,4.5C246.4,232.1,238.2,231.1,230.3,229z"/>
		</g>
	</g>
</g>
<g id="net">
	<circle class="st4" cx="398.9" cy="113.1" r="57.1"/>
	<g>
		<path class="st5" d="M359.3,125c-0.6-0.6-0.9-1.4-0.9-2.3s0.3-1.7,0.9-2.3c0.6-0.6,1.3-0.9,2.2-0.9c0.9,0,1.6,0.3,2.2,0.9
			s0.9,1.3,0.9,2.3c0,0.9-0.3,1.7-0.9,2.3c-0.6,0.6-1.3,0.9-2.2,0.9C360.7,125.9,360,125.6,359.3,125z"/>
		<path class="st5" d="M393.4,99v26.6h-4.1l-14.7-18v18h-4.9V99h4.1l14.7,18V99H393.4z"/>
		<path class="st5" d="M420.6,121.5v4.1h-20V99H420v4.1h-14.5v6.9h12.9v4.1h-12.9v7.3L420.6,121.5L420.6,121.5z"/>
		<path class="st5" d="M431.5,103.2h-8.8V99h22.6v4.2h-8.8v22.4h-4.9v-22.4H431.5z"/>
	</g>
</g>
</svg>
